dist/intermediate-svg/nocorporate.svg

<?xml version="1.0" encoding="utf-8"?><svg xmlns="http://www.w3.org/2000/svg" viewBox="0 0 115 115" width="24" height="24"><circle cx="57.5" cy="57.5" r="57" fill="#fff" stroke="#ccc"/><path d="M29 38.24v2.32h57v-2.32l-28.5-9.82zM35.13 48.7h4.07v28.46h-4.07zM45.3 48.7h4.07v28.46H45.3zM55.47 48.7h4.06v28.46h-4.06zM65.63 48.7h4.07v28.46h-4.07zM75.8 48.7h4.07v28.46H75.8zM80.88 43.61H34.12a1 1 0 000 2h46.76a1 1 0 100-2zM85 84.28v-2H30.05v2H27v2h61v-2z" fill="#ddd"/></svg>

<?xml version="1.0" encoding="utf-8"?><svg xmlns="http://www.w3.org/2000/svg" xmlns:xlink="http://www.w3.org/1999/xlink" viewBox="0 0 115 115" width="24" height="24"><circle cx="57.5" cy="57.5" r="57" fill="#fff" stroke="#ccc"/><path d="M29 38.24v2.32H86V38.24L57.5 28.42zM35.13 48.7H39.2V77.16H35.13zM45.3 48.7h4.07V77.16H45.3zM55.47 48.7h4.06V77.16H55.47zM65.63 48.7H69.7V77.16H65.63zM75.8 48.7h4.07V77.16H75.8zM80.88 43.61H34.12a1 1 0 000 2H80.88a1 1 0 100-2zM85 84.28v-2H30.05v2H27v2H88v-2z" fill="#ddd"/></svg>
